src/static/logos/google-developers-icon.svg

<?xml version="1.0" encoding="UTF-8"?>
<svg width="256px" height="189px" viewBox="0 0 256 189" version="1.1" xmlns="http://www.w3.org/2000/svg" xmlns:xlink="http://www.w3.org/1999/xlink" preserveAspectRatio="xMidYMid">
    <defs>
        <path d="M5.29550498,85.9528279 C2.23483167,91.2589484 2.23483167,97.7950592 5.29550498,103.101179 L53.1507054,186.054008 L113.005461,186.054008 L30.2671667,42.6457308 L5.29550498,85.9528279 Z" id="path-1"></path>
        <filter x="-3.3%" y="-2.8%" width="106.8%" height="105.3%" filterUnits="objectBoundingBox" id="filter-2">
            <feMorphology radius="0.2" operator="dilate" in="SourceAlpha" result="shadowSpreadOuter1"></feMorphology>
            <feOffset dx="0" dy="0" in="shadowSpreadOuter1" result="shadowOffsetOuter1"></feOffset>
            <feGaussianBlur stdDeviation="1" in="shadowOffsetOuter1" result="shadowBlurOuter1"></feGaussianBlur>
            <feColorMatrix values="0 0 0 0 0   0 0 0 0 0   0 0 0 0 0  0 0 0 0.3 0" type="matrix" in="shadowBlurOuter1"></feColorMatrix>
        </filter>
        <radialGradient cx="0.74859057%" cy="1.90057392%" fx="0.74859057%" fy="1.90057392%" r="59.8685633%" gradientTransform="translate(0.007486,0.019006),scale(1.000000,0.731512),rotate(180.000000),translate(-0.007486,-0.019006)" id="radialGradient-3">
            <stop stop-color="#3E2723" stop-opacity="0.2" offset="0%"></stop>
            <stop stop-color="#3E2723" stop-opacity="0.02" offset="100%"></stop>
        </radialGradient>
        <path d="M252.409119,103.115482 C255.469792,97.8093614 255.469792,91.2732507 252.409119,85.9671302 L204.553918,3.01430221 L144.699162,3.01430221 L227.437457,146.436881 C227.437457,146.436881 252.409119,103.115482 252.409119,103.115482 Z" id="path-4"></path>
        <filter x="-3.5%" y="-2.5%" width="106.8%" height="105.3%" filterUnits="objectBoundingBox" id="filter-5">
            <feMorphology radius="0.2" operator="dilate" in="SourceAlpha" result="shadowSpreadOuter1"></feMorphology>
            <feOffset dx="0" dy="0" in="shadowSpreadOuter1" result="shadowOffsetOuter1"></feOffset>
            <feGaussianBlur stdDeviation="1" in="shadowOffsetOuter1" result="shadowBlurOuter1"></feGaussianBlur>
            <feColorMatrix values="0 0 0 0 0   0 0 0 0 0   0 0 0 0 0  0 0 0 0.3 0" type="matrix" in="shadowBlurOuter1"></feColorMatrix>
        </filter>
        <radialGradient cx="99.0104958%" cy="97.909114%" fx="99.0104958%" fy="97.909114%" r="59.8685633%" gradientTransform="translate(0.990105,0.979091),scale(1.000000,0.731512),translate(-0.990105,-0.979091)" id="radialGradient-6">
            <stop stop-color="#BF360C" stop-opacity="0.2" offset="0%"></stop>
            <stop stop-color="#BF360C" stop-opacity="0.02" offset="100%"></stop>
        </radialGradient>
    </defs>
    <g>
        <polygon fill="#DB4437" fill-rule="nonzero" points="53.1364032 3 30.2671667 42.6457308 60.2016957 94.534155 113.005461 3"></polygon>
        <g>
            <use fill="black" fill-opacity="1" filter="url(#filter-2)" xlink:href="#path-1"></use>
            <use fill="#4285F4" xlink:href="#path-1"></use>
        </g>
        <path d="M5.29550498,101.685261 C3.89388823,99.2395826 3.16447544,96.5507668 3.05005774,93.8190444 C2.92133784,97.0227398 3.65075063,100.240737 5.29550498,103.115482 L53.1507054,186.06831 L113.005461,186.06831 L112.175934,184.638089 L53.1364032,184.638089 C53.1364032,184.638089 5.29550498,101.685261 5.29550498,101.685261 Z" fill="#1A237E" fill-rule="nonzero" opacity="0.2"></path>
        <polygon fill="#FFFFFF" fill-rule="nonzero" opacity="0.2" points="30.6819308 43.3751436 53.1364032 4.43022117 112.175934 4.43022117 113.005461 3 53.1364032 3 30.2671667 42.6457308"></polygon>
        <polygon fill="#3E2723" fill-rule="nonzero" opacity="0.2" points="112.175934 3 59.8012338 93.8047422 60.2016957 94.534155 113.005461 3"></polygon>
        <path d="M5.29550498,87.3830491 L30.2814688,44.0759521 L112.175934,186.06831 L113.005461,186.06831 L30.2671667,42.6457308 L5.29550498,85.9528279 C3.63644842,88.8275725 2.90703562,92.0455701 3.05005774,95.2492656 C3.15017322,92.5318453 3.87958602,89.8287273 5.29550498,87.3830491 Z" fill="#FFFFFF" fill-rule="nonzero" opacity="0.2"></path>
        <polygon fill="url(#radialGradient-3)" fill-rule="nonzero" points="30.3100733 42.7029397 60.2016957 94.534155 68.2252365 80.6324052"></polygon>
        <polygon fill="#FFC107" fill-rule="nonzero" points="204.56822 186.06831 227.437457 146.422579 197.502928 94.534155 144.699162 186.06831"></polygon>
        <g>
            <use fill="black" fill-opacity="1" filter="url(#filter-5)" xlink:href="#path-4"></use>
            <use fill="#0F9D58" xlink:href="#path-4"></use>
        </g>
        <path d="M252.409119,87.3830491 C253.810735,89.8287273 254.540148,92.5175431 254.654566,95.2492656 C254.783286,92.0455701 254.053873,88.8275725 252.409119,85.9528279 L204.553918,3 L144.699162,3 L145.52869,4.43022117 L204.56822,4.43022117 L252.409119,87.3830491 Z" fill="#FFFFFF" fill-rule="nonzero" opacity="0.2"></path>
        <polygon fill="#FFFFFF" fill-rule="nonzero" opacity="0.2" points="145.52869 186.06831 197.917692 95.2635677 197.502928 94.534155 144.699162 186.06831"></polygon>
        <path d="M252.409119,101.685261 L227.423155,144.992358 L145.52869,3 L144.699162,3 L227.437457,146.422579 L252.409119,103.115482 C254.068175,100.240737 254.797588,97.0227398 254.654566,93.8190444 C254.55445,96.5364646 253.825038,99.2395826 252.409119,101.685261 Z" fill="#263238" fill-rule="nonzero" opacity="0.2"></path>
        <polygon fill="url(#radialGradient-6)" fill-rule="nonzero" points="227.39455 146.36537 197.502928 94.534155 189.479387 108.435905"></polygon>
    </g>
</svg>

<svg width="256" height="189" xmlns="http://www.w3.org/2000/svg" xmlns:xlink="http://www.w3.org/1999/xlink" preserveAspectRatio="xMidYMid"><defs><radialGradient cx=".749%" cy="1.901%" fx=".749%" fy="1.901%" r="59.869%" gradientTransform="matrix(-1 0 0 -.73151 .015 .033)" id="c"><stop stop-color="#3E2723" stop-opacity=".2" offset="0%"/><stop stop-color="#3E2723" stop-opacity=".02" offset="100%"/></radialGradient><radialGradient cx="99.01%" cy="97.909%" fx="99.01%" fy="97.909%" r="59.869%" gradientTransform="matrix(1 0 0 .73151 0 .263)" id="f"><stop stop-color="#BF360C" stop-opacity=".2" offset="0%"/><stop stop-color="#BF360C" stop-opacity=".02" offset="100%"/></radialGradient><filter x="-3.3%" y="-2.8%" width="106.8%" height="105.3%" filterUnits="objectBoundingBox" id="a"><feMorphology radius=".2" operator="dilate" in="SourceAlpha" result="shadowSpreadOuter1"/><feOffset in="shadowSpreadOuter1" result="shadowOffsetOuter1"/><feGaussianBlur stdDeviation="1" in="shadowOffsetOuter1" result="shadowBlurOuter1"/><feColorMatrix values="0 0 0 0 0 0 0 0 0 0 0 0 0 0 0 0 0 0 0.3 0" in="shadowBlurOuter1"/></filter><filter x="-3.5%" y="-2.5%" width="106.8%" height="105.3%" filterUnits="objectBoundingBox" id="d"><feMorphology radius=".2" operator="dilate" in="SourceAlpha" result="shadowSpreadOuter1"/><feOffset in="shadowSpreadOuter1" result="shadowOffsetOuter1"/><feGaussianBlur stdDeviation="1" in="shadowOffsetOuter1" result="shadowBlurOuter1"/><feColorMatrix values="0 0 0 0 0 0 0 0 0 0 0 0 0 0 0 0 0 0 0.3 0" in="shadowBlurOuter1"/></filter><path d="M5.296 85.953a17.16 17.16 0 000 17.148l47.855 82.953h59.854L30.267 42.646 5.296 85.953z" id="b"/><path d="M252.41 103.115a17.16 17.16 0 000-17.148L204.553 3.014h-59.855l82.738 143.423 24.972-43.322z" id="e"/></defs><path fill="#DB4437" d="M53.136 3L30.267 42.646l29.935 51.888L113.005 3z"/><use filter="url(#a)" xlink:href="#b"/><use fill="#4285F4" xlink:href="#b"/><path d="M5.296 101.685C3.894 99.24 3.164 96.551 3.05 93.82c-.129 3.204.6 6.422 2.246 9.296l47.855 82.953h59.854l-.83-1.43H53.137l-47.84-82.953z" fill="#1A237E" opacity=".2"/><path fill="#FFF" opacity=".2" d="M30.682 43.375L53.136 4.43h59.04l.83-1.43h-59.87L30.267 42.646z"/><path fill="#3E2723" opacity=".2" d="M112.176 3L59.8 93.805l.4.73L113.006 3z"/><path d="M5.296 87.383L30.28 44.076l81.895 141.992h.83L30.266 42.646 5.296 85.953c-1.66 2.875-2.389 6.093-2.246 9.296.1-2.717.83-5.42 2.246-7.866z" fill="#FFF" opacity=".2"/><path fill="url(#c)" d="M30.31 42.703l29.892 51.831 8.023-13.902z"/><path fill="#FFC107" d="M204.568 186.068l22.87-39.645-29.935-51.889-52.804 91.534z"/><use filter="url(#d)" xlink:href="#e"/><use fill="#0F9D58" xlink:href="#e"/><path d="M252.41 87.383c1.4 2.446 2.13 5.135 2.245 7.866.128-3.203-.601-6.421-2.246-9.296L204.554 3h-59.855l.83 1.43h59.04l47.84 82.953zm-106.881 98.685l52.389-90.804-.415-.73-52.804 91.534z" fill="#FFF" opacity=".2"/><path d="M252.41 101.685l-24.987 43.307L145.53 3h-.83l82.738 143.423 24.972-43.308c1.66-2.874 2.389-6.092 2.246-9.296-.1 2.717-.83 5.42-2.246 7.866z" fill="#263238" opacity=".2"/><path fill="url(#f)" d="M227.395 146.365l-29.892-51.83-8.024 13.9z"/></svg>
